X: 13931
T: Foxhunters, The
R: reel
M: 4/4
K: Gmajor
d2BG dGBG|dGBG AGEG|d2BG dGBG|AcBG AGEG|
d2BG dGBG|dGBG AGEG|Bd~d2 eBdB|AcBG AGEG||
|:D3 B BAGE|DGBG AGEG|D3 B BAGB|AcBG AGEG:|
|:gedB GABd|gedg eAAd|gedB GABG|1 ABcd eAA d:|2 ABcd eAA B||
|:dggf ~g2ge|dggd egdB|dggf ~g2gd|egdB AGAB:|
|:G2Bc d2BA|GABG AGAB|~G2Bc d2 (3Bcd|egdB AcBA:|

